X: 16145
T: Green Grow The Rushes - O
R: barndance
M: 4/4
K: Dmajor
d2 dc BA F/G/A|d>dde c/B/A B>c|decA BA/A/ F2|E>EFG BA D2|
d2 dc {B/c/}BA F/G/A|d>dde c/B/A B>c|de c/B/A BA/A/ F2|E>E F2 BA D2||
[A,A]DD>E FA D2|FEEA BEEF/A/|B>cBA FGAF/A/|BEE>D EF D2|
[A,A]DD>E FA D2|FEEA BEEG/A/|B>cBA FGAF|BE/E/ E>D E/E/F D2||
d2 dc BA F/B/A|d2 de c/B/A B>c|decA BA F2|E>EFA BA D2|
d2 dc BAFA/c/|d>dde c/B/A B>c|de c/B/A BAFA|E>EFE BA D2||
defa d2 fe|e2 be e2 f<a|b>c'ba fgaf|beed ef d2|
defa d2 fe|e2 be e2 f<a|b>c'ba fg a2|beed ef d2||

